projects/plugins/jetpack/extensions/blocks/blogging-prompt/icon.svg

<svg viewBox="0 0 24 24" xmlns="http://www.w3.org/2000/svg"><path d="m14.3438 19.3438h-4.68755c-.08594 0-.15625.0703-.15625.1562v.625c0 .3457.2793.625.625.625h3.75c.3457 0 .625-.2793.625-.625v-.625c0-.0859-.0703-.1562-.1562-.1562zm-2.3438-16.0938c-3.53711 0-6.40625 2.86914-6.40625 6.40625 0 2.37105 1.28906 4.44145 3.20313 5.54885v2.2637c0 .3457.27929.625.625.625h5.15622c.3457 0 .625-.2793.625-.625v-2.2637c1.9141-1.1074 3.2031-3.1778 3.2031-5.54885 0-3.53711-2.8691-6.40625-6.4062-6.40625zm2.498 10.7383-.7011.4062v2.293h-3.5938v-2.293l-.70115-.4062c-1.53711-.8887-2.50195-2.5254-2.50195-4.33205 0-2.76172 2.23828-5 5-5 2.7617 0 5 2.23828 5 5 0 1.80665-.9648 3.44335-2.502 4.33205z" stroke-width=".1"/></svg>

<svg viewBox="0 0 24 24" xmlns="http://www.w3.org/2000/svg">
	<path
		d="M14.3438 19.3438H9.65625C9.57031 19.3438 9.5 19.4141 9.5 19.5V20.125C9.5 20.4707 9.7793 20.75 10.125 20.75H13.875C14.2207 20.75 14.5 20.4707 14.5 20.125V19.5C14.5 19.4141 14.4297 19.3438 14.3438 19.3438ZM12 3.25C8.46289 3.25 5.59375 6.11914 5.59375 9.65625C5.59375 12.0273 6.88281 14.0977 8.79688 15.2051V17.4688C8.79688 17.8145 9.07617 18.0938 9.42188 18.0938H14.5781C14.9238 18.0938 15.2031 17.8145 15.2031 17.4688V15.2051C17.1172 14.0977 18.4062 12.0273 18.4062 9.65625C18.4062 6.11914 15.5371 3.25 12 3.25ZM14.498 13.9883L13.7969 14.3945V16.6875H10.2031V14.3945L9.50195 13.9883C7.96484 13.0996 7 11.4629 7 9.65625C7 6.89453 9.23828 4.65625 12 4.65625C14.7617 4.65625 17 6.89453 17 9.65625C17 11.4629 16.0352 13.0996 14.498 13.9883Z"
		stroke-width="0.1"
	/>
</svg>
